!!!!SEGMENT: Ver3003-Se_mai_provasti_donna.krn
!!!id: Ver3003
!!!AGN: Madrigal
!!!SCT: Owens (1989)
!!!voices: 4
!!!COM: Philippe Verdelot
!!!OTL: Se mai provasti donna
**kern	**kern	**kern	**kern
*part4	*part3	*part2	*part1
*staff4	*staff3	*staff2	*staff1
*I"Bassus	*I"Tenor	*I"Altus	*I"Superius
*I'B	*I'T	*I'A	*I'S
*clefF4	*clefGv2	*clefG2	*clefG2
*k[]	*k[]	*k[]	*k[]
*C:	*C:	*C:	*C:
*M2/1	*M2/1	*M2/1	*M2/1
*met(C)	*met(C)	*met(C)	*met(C)
=1	=1	=1	=1
0AA	0c	0A	0e
=2	=2	=2	=2
2E	2B	2G	2e
2E	2B	2G	2e
2C	2e	2c	2g
2C	2e	2c	2g
=3	=3	=3	=3
1F	1f	1c	1a
1C	2e	2c	2g
.	2c	2G	2e
=4	=4	=4	=4
2C	2e	1c	1g
2C	2e	.	.
1D	1d	1A	1f
=5	=5	=5	=5
1AA	1c	1A	1e
2r	2r	2r	2r
2AA	2c	2e	2a
=6	=6	=6	=6
2E	2B	2e	2g
2F	2A	2c	2a
2D	2d	2f	2a
2E	2B	2e	2g
=7	=7	=7	=7
2F	1A	2c	1a
2D	.	1d	.
2.F	2D	.	1a
.	[2F	2c	.
4E	.	.	.
=8	=8	=8	=8
2D	4F]	2d	2b
.	4E	.	.
2C	1A	2e	2cc
1BB	.	2f	1dd
.	2G	2g	.
=9	=9	=9	=9
1AA	1A	1e	1cc
2r	2r	2r	2r
2A	2e	2a	2cc
=10	=10	=10	=10
2F	2.f	2a	2cc
2F	.	2a	2cc
.	4e	.	.
2G	2d	2g	2b
2A	2c	2f	2a
=11	=11	=11	=11
2E	2B	2e	2g
2E	2B	2e	2g
1F	1A	1c	2r
.	.	.	2a
=12	=12	=12	=12
2D	2d	2f	2a
2D	2d	2f	2a
1A	1c	1e	1a
=13	=13	=13	=13
1D	1A	1d	1f
1C	1c	1G	1e
=14	=14	=14	=14
1C	1e	1c	1g
2D	2d	2A	2f
2AA	2c	2A	2e
=15	=15	=15	=15
1D	1d	1A	1f
1AA	1c	1A	1e
=16	=16	=16	=16
2r	2r	2r	2r
2A	2e	2a	2cc
2F	2.f	2a	2cc
2F	.	2a	2cc
.	4e	.	.
=17	=17	=17	=17
2G	2d	2g	2b
2A	2c	2f	2a
2E	2B	2e	2g
2E	2B	2e	2g
=18	=18	=18	=18
1F	1A	1c	2r
.	.	.	2a
2D	2d	2f	2a
2D	2d	2f	2a
=19	=19	=19	=19
1A	1c	1e	1a
1D	1A	1d	1f
=20	=20	=20	=20
1C	1c	1G	1e
1C	1e	1c	1g
=21	=21	=21	=21
2D	2d	2A	2f
2AA	2c	2A	2e
1D	1d	1A	1f
=22	=22	=22	=22
1AA	1c	1A	1e
2r	2r	2r	2r
2AA	2c	2e	2a
=23	=23	=23	=23
2E	2B	2e	2g
2E	2c	2g	2e
2D	2d	2f	2f
2E	2B	2e	2g
=24	=24	=24	=24
1AA	4A	1c	2a
.	4B	.	.
.	4c	.	4A
.	4d	.	4B
1AA	2e	1A	4c
.	.	.	4d
.	2c	.	4e
.	.	.	4f
=25	=25	=25	=25
1E	2B	2.B	2.g
.	2G	.	.
.	.	4c	8fL
.	.	.	8eJ
2D	2A	2d	2f
2C	[2c	2G	[2e
=26	=26	=26	=26
1F	4c]	1A	2e]
.	4B	.	.
.	1A	.	2d
1E	.	1B	1e
.	2G#i	.	.
=27	=27	=27	=27
2AA	2A	2c	2r
2AA	2E	2A	2c
2AA	2E	2A	2c
2AA	2E	2A	2c
=28	=28	=28	=28
2D	2F	2A	2d
2D	2F	2A	2d
1AA	2E	1A	2c
.	[2c	.	[2e
=29	=29	=29	=29
1C	4c]	1G	4e]
.	4d	.	4f
.	2e	.	4g
.	.	.	4e
2D	2.d	1r	4f
.	.	.	4g
2D	.	.	[2a
.	4c	.	.
=30	=30	=30	=30
1E	1B	1e	2a]
.	.	.	2g#i
2D	1d	2.f	[1a
2D	.	.	.
.	.	4e	.
=31	=31	=31	=31
2.F	2A	2d	1a]
.	2f	2c	.
4E	.	.	.
2D	2.f	2d	1a
2C	.	2e	.
.	4e	.	.
=32	=32	=32	=32
1D	1d	1f	2r
.	.	.	2a
1AA	2c	2e	2.cc
.	2A	2c	.
.	.	.	4b
=33	=33	=33	=33
2r	2.c	2.e	2a
2E	.	.	2g
.	4B	4d	.
2F	2A	2c	2f
2G	2G	2B	[2e
=34	=34	=34	=34
1A	1F	2c	2e]
.	.	2A	2d
2AA	1E	2.c	[1el
2AA	.	.	.
.	.	4B	.
=35	=35	=35	=35
2.C	2r	2A	0e_
.	2c	2G	.
4BB	.	.	.
2AA	2c	2A	.
2GG	2B	2B	.
=36	=36	=36	=36
1AA	1A	1c	0e_
[1El	[1Gl	[1Bl	.
=37	=37	=37	=37
00E]	00G]	00B]	00e]
==	==	==	==
*-	*-	*-	*-
!!!system-decoration: [*]
!!!RDF**kern: i = editorial accidental
!!!RDF**kern: l = terminal long
!!!ENC: Benjamin Ory
!!!END: 2023/10/4
!!!EED: Benjamin Ory
!!!EEV: 2023/10/4
!!!YEC: Copyright 2023 Benjamin Ory, All Rights Reserved
!!!ONB: Translated from MusicXML on 2023/10/04
